motion-pause.svg

<svg fill="currentColor" viewBox="0 0 24 24"><path d="M22 12c0-5.54-4.46-10-10-10-1.17 0-2.3.19-3.38.56l.7 1.94c.85-.34 1.74-.53 2.68-.53 4.41 0 8.03 3.62 8.03 8.03s-3.62 8.03-8.03 8.03S3.97 16.41 3.97 12c0-.94.19-1.88.53-2.72l-1.94-.66C2.19 9.7 2 10.83 2 12c0 5.54 4.46 10 10 10s10-4.46 10-10M5.47 3.97c.85 0 1.53.71 1.53 1.5C7 6.32 6.32 7 5.47 7c-.79 0-1.5-.68-1.5-1.53 0-.79.71-1.5 1.5-1.5M18 12c0-3.33-2.67-6-6-6s-6 2.67-6 6 2.67 6 6 6 6-2.67 6-6m-7-3v6H9V9m6 0v6h-2V9"/></svg>

<svg  viewBox="0 0 24 24" fill="currentColor"><path  d="M22 12C22 6.46 17.54 2 12 2C10.83 2 9.7 2.19 8.62 2.56L9.32 4.5C10.17 4.16 11.06 3.97 12 3.97C16.41 3.97 20.03 7.59 20.03 12C20.03 16.41 16.41 20.03 12 20.03C7.59 20.03 3.97 16.41 3.97 12C3.97 11.06 4.16 10.12 4.5 9.28L2.56 8.62C2.19 9.7 2 10.83 2 12C2 17.54 6.46 22 12 22C17.54 22 22 17.54 22 12M5.47 3.97C6.32 3.97 7 4.68 7 5.47C7 6.32 6.32 7 5.47 7C4.68 7 3.97 6.32 3.97 5.47C3.97 4.68 4.68 3.97 5.47 3.97M18 12C18 8.67 15.33 6 12 6C8.67 6 6 8.67 6 12C6 15.33 8.67 18 12 18C15.33 18 18 15.33 18 12M11 9V15H9V9M15 9V15H13V9"/></svg>
